X: 1863
T: Tanburamın İnce Kıvrak Beli Var
C: Sadettin Kaynak
O: Turkey
F: http://compmusic.upf.edu/node/140
N: karcigar--turku--turkaksagi--tanburamin_ince--sadettin_kaynak
N: makam= karcigar
N: form= turku
N: usul= turkaksagi = 5/8
M: 5/8
L: 1/16
K: C _2/4B _3/4e ^3/4f 
Q: 1/4=160
%%MIDI tuningsystem comma53
BcBc d4 ef | d4c2 B2A2  | BcBc d4 ef | d4d2 d2d2  | 
w:  ARANAĞME  |   |   |   | 
fgfg a4 c'2 | _7/8b2 a2g2 f2e2  | dede g2f2 e2 | \
w:   |   |   | 
d2 c2B2 A2G2  | 
w:   | 
ABAB c2B2 BA | A4A2 A2A2  | BcBc d4 ef | \
w:   |   |  ARANAĞME  | 
d4c2 B2A2  | 
w:   | 
BcBc d4 ef | d4d2 d2d2  | fgfg a4 c'2 | \
w:   |   |   | 
_7/8b2 a2g2 f2e2  | 
w:   | 
dede g2f2 e2 | d2 c2B2 A2G2  | ABAB c2B2 BA | \
w:   |   |   | 
A4A2 A2A2  | 
w:   | 
B2c2 d2d4 | d4e2 d2c2  | d2d2 e2dc cB | \
w:  Tan bu ra mın   |  in ce   |  kıv rak  be li   | 
c4GA Bcd2  | 
w:  var  SAZ  | 
d2d2 e2dc cB | c4dd cBA2  | B2c2 d2d4 | \
w:  kıv rak  be li   |  var   SAZ  |  Sır ma  sa ça   | 
d4e2 d2c2  | 
w:  ben zer   | 
d2d2 e2dc cB | c4GA Bcd2  | d2d2 e2dc cB | \
w:  i pek  te li   |  var  SAZ  |  i pek  te li   | 
c4de fga2  | 
w:  var   SAZ  | 
f2g2 a2a4 | a4_7/8ba gfed  | d2ed g2fe dc | \
w:  Bül bül  gi bi   |  söy ler   |  şa kır  *  di li   | 
d4de fde2  | 
w:  var  SAZ  | 
d2ed g2fe dc | d4AB ABc2  | A2B2 c2c4 | \
w:  şa kır  *  di li   |  var  SAZ  |  Vur  tel le re   | 
c2 c2c2 c2_7/8B2  | 
w:  ya nık  ya nık   | 
_7/8B2BA B2AG G^F | G4_7/8BA GAB2  | \
w:  çağ la *  sın  *  *  a  |  man  SAZ  | 
_7/8B2BA B2AG G^F | 
w:  çağ la *  sın  *  *  a  | 
G4A_7/8B ABc2  | A2B2 c2d2 z2 | B2 c2d2 =e2z2  | \
w:  man   SAZ  |  Tan bu ram da   |  de li  gö nül   | 
d2=e2 d2c2 cB | 
w:  ağ la sın  *  a  | 
c4c2 c2c2  | c2d2 c2B2 BA | B4B2 B2B2  | \
w:  man  SAZ  |  ağ la sın  *  a  |  man  SAZ  | 
B2c2 B2A2 GA | A4A2 A2A2  | 
w:  ağ la sın  *  a  |  man    | 
BcBc d4 ef | d4c2 B2A2  | BcBc d4 ef | d4d2 d2d2  | 
w:  ARANAĞME  |   |   |   | 
fgfg a4 c'2 | _7/8b2 a2g2 f2e2  | dede g2f2 e2 | \
w:   |   |   | 
d2 c2B2 A2G2  | 
w:   | 
ABAB c2B2 BA | A4A2 A2A2  | BcBc d4 ef | \
w:   |   |  ARANAĞME  | 
d4c2 B2A2  | 
w:   | 
BcBc d4 ef | d4d2 d2d2  | fgfg a4 c'2 | \
w:   |   |   | 
_7/8b2 a2g2 f2e2  | 
w:   | 
dede g2f2 e2 | d2 c2B2 A2G2  | ABAB c2B2 BA | \
w:   |   |   | 
A4A2 A2A2  | 
w:   | 
B2c2 d2d4 | d4e2 d2c2  | d2d2 e2dc cB | \
w:  Tan bu ra mın   |  in ce   |  kıv rak  be li   | 
c4GA Bcd2  | 
w:  var  SAZ  | 
d2d2 e2dc cB | c4dd cBA2  | B2c2 d2d4 | \
w:  kıv rak  be li   |  var   SAZ  |  Sır ma  sa ça   | 
d4e2 d2c2  | 
w:  ben zer   | 
d2d2 e2dc cB | c4GA Bcd2  | d2d2 e2dc cB | \
w:  i pek  te li   |  var  SAZ  |  i pek  te li   | 
c4de fga2  | 
w:  var   SAZ  | 
f2g2 a2a4 | a4_7/8ba gfed  | d2ed g2fe dc | \
w:  Bül bül  gi bi   |  söy ler   |  şa kır  *  di li   | 
d4de fde2  | 
w:  var  SAZ  | 
d2ed g2fe dc | d4AB ABc2  | A2B2 c2c4 | \
w:  şa kır  *  di li   |  var  SAZ  |  Vur  tel le re   | 
c2 c2c2 c2_7/8B2  | 
w:  ya nık  ya nık   | 
_7/8B2BA B2AG G^F | G4_7/8BA GAB2  | \
w:  çağ la *  sın  *  *  a  |  man  SAZ  | 
_7/8B2BA B2AG G^F | 
w:  çağ la *  sın  *  *  a  | 
G4A_7/8B ABc2  | A2B2 c2d2 z2 | B2 c2d2 =e2z2  | \
w:  man   SAZ  |  Tan bu ram da   |  de li  gö nül   | 
d2=e2 d2c2 cB | 
w:  ağ la sın  *  a  | 
c4c2 c2c2  | c2d2 c2B2 BA | B4B2 B2B2  | \
w:  man  SAZ  |  ağ la sın  *  a  |  man  SAZ  | 
B2c2 B2A2 GA | A4A2 A2A2  | 
w:  ağ la sın  *  a  |  man    | 
|


